public/svgs/mobile-logo-text.svg

<svg width="258" height="42" viewBox="0 0 258 42" fill="none" xmlns="http://www.w3.org/2000/svg">
<path d="M243.425 25.8459V29.6536H230.436C228.826 29.6536 227.919 30.4613 227.715 32.1229H243.493V35.1921C243.493 39.7152 241.09 41.9998 236.284 41.9998H224.043V38.169H237.1C238.665 38.169 239.549 37.3152 239.798 35.7459H224.043V32.6536C224.043 28.1306 226.446 25.8459 231.274 25.8459H243.425Z" fill="#C11111"/>
<path d="M220.884 25.8459V41.9998H216.803C212.451 35.9536 208.257 32.0075 204.131 30.4152C203.836 30.3229 203.474 30.1613 203.088 30.0229C203.134 30.5998 203.156 30.9921 203.156 31.1536V41.9998H199.393V25.8459H202.726C207.804 27.5075 212.519 31.2459 216.486 35.6305L217.189 36.3921C217.143 35.9075 217.121 35.5613 217.121 35.3305V25.8459H220.884Z" fill="#C11111"/>
<path d="M192.342 33.8998V29.6536H183.138C179.964 29.6536 178.99 30.6459 178.99 33.969V38.169H188.193C191.299 38.169 192.342 37.2459 192.342 33.8998ZM183.07 25.8459H196.195V33.969C196.195 38.9998 193.316 41.9998 188.284 41.9998H175.136V33.8998C175.136 28.9613 178.06 25.8459 183.07 25.8459Z" fill="#C11111"/>
<path d="M159.325 25.8459H172.156V29.6536H159.393C156.174 29.6536 155.245 30.6229 155.245 34.0382V38.169H168.393V35.7459H165.514V32.1229H172.247V41.9998H151.414V33.8998C151.414 28.8459 154.27 25.8459 159.325 25.8459Z" fill="#C11111"/>
<path d="M144.4 32.1921V29.6536H137.418C132.793 29.6536 132.045 30.6921 131.728 32.1921H144.4ZM148.276 25.8459V41.9998H144.4V35.7459H131.478V41.9998H127.625V33.8998C127.625 28.8459 130.504 25.8459 135.536 25.8459H148.276Z" fill="#C11111"/>
<path d="M109.392 35.7459V32.1229H118.414C119.978 32.1229 120.863 31.2459 121.089 29.6536H107.601V41.9998H103.747V25.8459H124.83V28.9383C124.83 33.0229 122.88 35.2613 118.981 35.6767L125.011 41.9998H120.341L114.22 35.7459H109.392Z" fill="#C11111"/>
<path d="M97.1632 33.9V29.6539H81V25.8462H101.017V33.9693C101.017 39 98.1379 42 93.1054 42H81V32.1231H84.8538V38.1692H93.0147C95.7803 38.1692 97.1632 36.7616 97.1632 33.9Z" fill="#C11111"/>
<path d="M238.006 7H241.86V19.3231H250.134C252.174 19.3231 253.466 18.5154 254.01 16.9H258C257.32 21.0307 254.486 23.1538 250.202 23.1538H238.006V7Z" fill="#C11111"/>
<path d="M230.779 13.3461V10.8077H223.797C219.172 10.8077 218.424 11.8461 218.107 13.3461H230.779ZM234.655 7V23.1538H230.779V16.9H217.857V23.1538H214.003V15.0538C214.003 9.99999 216.882 7 221.915 7H234.655Z" fill="#C11111"/>
<path d="M210.974 7V10.8077H203.675V23.1538H199.821V10.8077H197.146C195.469 10.8077 194.562 11.6154 194.426 13.2769H190.776C191.116 9.07692 193.428 7 197.758 7H210.974Z" fill="#C11111"/>
<path d="M172.215 16.9V13.2769H181.238C182.802 13.2769 183.686 12.4 183.913 10.8077H170.424V23.1538H166.571V7H187.653V10.0923C187.653 14.1769 185.703 16.4154 181.804 16.8308L187.834 23.1538H183.164L177.044 16.9H172.215Z" fill="#C11111"/>
<path d="M159.441 15.0538V10.8077H150.238C147.064 10.8077 146.089 11.8 146.089 15.1231V19.3231H155.293C158.399 19.3231 159.441 18.4 159.441 15.0538ZM150.17 7H163.295V15.1231C163.295 20.1538 160.416 23.1538 155.384 23.1538H142.235V15.0538C142.235 10.1154 145.16 7 150.17 7Z" fill="#C11111"/>
<path d="M124.929 23.1538V12.7923H128.806V23.1538H124.929ZM115.204 23.1538V7H131.118C135.833 7 139.052 10.0461 139.052 14.4077V23.1538H135.199V15.0769C135.199 12.2154 133.838 10.8077 131.118 10.8077H119.035V23.1538H115.204Z" fill="#C11111"/>
<path d="M97.8533 23.1538V12.7923H101.73V23.1538H97.8533ZM88.1282 23.1538V7H104.042C108.757 7 111.976 10.0461 111.976 14.4077V23.1538H108.122V15.0769C108.122 12.2154 106.762 10.8077 104.042 10.8077H91.9593V23.1538H88.1282Z" fill="#C11111"/>
<path d="M84.8547 7V23.1538H81.0005V7H84.8547Z" fill="#C11111"/>
<path d="M66.9759 12.8324C64.3773 10.2312 61.1896 8.67052 57.8287 8.08093C52.666 7.21387 43.7267 7.31792 43.7267 7.31792C48.2656 5.75723 53.6015 6.48555 53.6015 6.48555C49.1665 4.50867 40.3311 5.89595 40.3311 5.89595C44.4196 4.78613 46.9836 4.6474 50.795 5.09827C50.795 5.09827 46.3946 3.12139 38.0789 4.43931C37.282 4.54335 36.589 5.44509 36.1386 5.75722C35.0298 6.48555 34.1636 6.79769 32.8816 6.31214C32.2579 6.06937 31.5996 5.86127 30.8373 5.58381C31.4957 4.95954 32.2233 4.85549 33.0202 4.95954C33.6092 5.0289 34.2676 4.95954 34.8219 4.85549C35.7921 4.6474 36.2772 3.98844 37.5245 3.91908C37.5245 3.91908 39.846 3.91908 41.9942 3.78035C44.1424 3.6763 45.9095 2.56647 46.6371 2.08092C43.4841 2.04624 40.6083 3.12139 37.3167 3.08671C40.6429 2.87861 42.514 1.87283 44.8701 0C42.5486 0.867052 41.1627 1.97688 38.564 2.01156C37.1088 2.04624 35.6189 2.39306 34.2329 2.67052C33.0895 2.87861 32.1886 4.12717 31.1145 4.61272C29.9711 5.09827 28.8277 4.82081 28.0654 4.02312C27.0606 5.06358 27.026 6.27746 27.8576 7.42197C28.1694 7.00578 28.5505 6.55491 29.0356 6C29.3474 6.52023 29.5553 6.76301 29.6939 6.9711C30.6641 6.45087 32.0154 6.79769 32.6737 7.66474C33.1242 8.21965 32.6737 8.46243 32.3619 8.7052C31.0799 9.64162 30.4216 9.39884 29.8325 8.80925L29.3821 9.84971L27.9961 9.81503L30.5255 12.3815L30.6294 11.3757L31.8075 11.341C32.2579 10.3006 33.4013 10.1965 34.1983 10.5434C35.0298 10.9249 35.5842 11.896 36.2079 12.5549C36.2425 12.4856 36.2772 12.2775 36.3118 12.0347C36.693 10.8208 37.5938 10.578 38.5294 11.4104L39.9499 12.7977C40.7815 13.5954 40.8162 14.948 40.0192 15.7803L30.872 24.9364L30.8027 25.0058L23.9422 31.8035C20.1309 35.6185 13.9288 35.6185 10.1521 31.8035C6.34071 27.9884 6.34071 21.7803 10.1521 18C12.0577 16.0925 14.5525 15.1561 17.0472 15.1561C19.5419 15.1561 22.0366 16.0925 23.9422 18L29.2435 23.3064L34.3715 18.1734L29.0703 12.8671C22.4177 6.20809 11.6073 6.20809 4.98941 12.8671C1.76708 16.0925 0 20.3584 0 24.9364C0 29.4798 1.76708 33.7803 4.98941 37.0058C8.31569 40.3353 12.6814 42 17.0472 42C21.4129 42 25.7786 40.3353 29.1049 37.0058L41.1627 24.9364L41.2319 24.8671L48.0578 18.0347C51.8691 14.2197 58.0712 14.2197 61.8479 18.0347C65.6593 21.8497 65.6593 28.0578 61.8479 31.8381C59.9422 33.7457 57.4475 34.6821 54.9528 34.6821C52.4581 34.6821 49.9634 33.7457 48.0578 31.8381L42.7565 26.5318L37.6285 31.6647L42.9297 36.9711C49.5823 43.6301 60.3927 43.6301 67.0106 36.9711C70.2329 33.7457 72 29.4798 72 24.9017C71.9654 20.3584 70.1983 16.0578 66.9759 12.8324Z" fill="url(#paint0_linear_2142_4533)"/>
<defs>
<linearGradient id="paint0_linear_2142_4533" x1="22.7586" y1="41.7829" x2="22.7586" y2="1.20528" gradientUnits="userSpaceOnUse">
<stop stop-color="#C11111"/>
<stop offset="1" stop-color="#E63F16"/>
</linearGradient>
</defs>
</svg>

<svg xmlns="http://www.w3.org/2000/svg" width="258" height="42" fill="none" viewBox="0 0 258 42"><path fill="#c11111" d="M243.425 25.846v3.808h-12.989c-1.61 0-2.517.807-2.721 2.469h15.778v3.07c0 4.522-2.403 6.807-7.209 6.807h-12.241v-3.831H237.1c1.565 0 2.449-.854 2.698-2.423h-15.755v-3.092c0-4.523 2.403-6.808 7.231-6.808zM220.884 25.846V42h-4.081c-4.352-6.046-8.546-9.992-12.672-11.585-.295-.092-.657-.254-1.043-.392.046.577.068.97.068 1.13V42h-3.763V25.846h3.333c5.078 1.662 9.793 5.4 13.76 9.784l.703.762a12 12 0 0 1-.068-1.062v-9.484zM192.342 33.9v-4.246h-9.204c-3.174 0-4.148.992-4.148 4.315v4.2h9.203c3.106 0 4.149-.923 4.149-4.27m-9.272-8.054h13.125v8.123c0 5.03-2.879 8.03-7.911 8.03h-13.148v-8.1c0-4.938 2.924-8.053 7.934-8.053M159.325 25.846h12.831v3.808h-12.763c-3.219 0-4.148.969-4.148 4.384v4.131h13.148v-2.423h-2.879v-3.623h6.733V42h-20.833v-8.1c0-5.054 2.856-8.054 7.911-8.054M144.4 32.192v-2.538h-6.982c-4.625 0-5.373 1.038-5.69 2.538zm3.876-6.346V42H144.4v-6.254h-12.922V42h-3.853v-8.1c0-5.054 2.879-8.054 7.911-8.054zM109.392 35.746v-3.623h9.022c1.564 0 2.449-.877 2.675-2.47h-13.488V42h-3.854V25.846h21.083v3.092c0 4.085-1.95 6.323-5.849 6.739l6.03 6.323h-4.67l-6.121-6.254zM97.163 33.9v-4.246H81v-3.808h20.017v8.123c0 5.031-2.88 8.031-7.912 8.031H81v-9.877h3.854v6.046h8.16c2.766 0 4.15-1.407 4.15-4.269M238.006 7h3.854v12.323h8.274q3.06 0 3.876-2.423H258c-.68 4.13-3.514 6.254-7.798 6.254h-12.196zM230.779 13.346v-2.538h-6.982c-4.625 0-5.373 1.038-5.69 2.538zM234.655 7v16.154h-3.876V16.9h-12.922v6.254h-3.854v-8.1C214.003 10 216.882 7 221.915 7zM210.974 7v3.808h-7.299v12.346h-3.854V10.808h-2.675c-1.677 0-2.584.807-2.72 2.469h-3.65c.34-4.2 2.652-6.277 6.982-6.277zM172.215 16.9v-3.623h9.023c1.564 0 2.448-.877 2.675-2.47h-13.489v12.347h-3.853V7h21.082v3.092c0 4.085-1.95 6.323-5.849 6.739l6.03 6.323h-4.67l-6.12-6.254zM159.441 15.054v-4.246h-9.203c-3.174 0-4.149.992-4.149 4.315v4.2h9.204c3.106 0 4.148-.923 4.148-4.27M150.17 7h13.125v8.123c0 5.03-2.879 8.03-7.911 8.03h-13.149v-8.1c0-4.938 2.925-8.053 7.935-8.053M124.929 23.154V12.792h3.877v10.362zm-9.725 0V7h15.914c4.715 0 7.934 3.046 7.934 7.408v8.746h-3.853v-8.077c0-2.862-1.361-4.27-4.081-4.27h-12.083v12.347zM97.853 23.154V12.792h3.877v10.362zm-9.725 0V7h15.914c4.715 0 7.934 3.046 7.934 7.408v8.746h-3.854v-8.077c0-2.862-1.36-4.27-4.08-4.27H91.959v12.347zM84.855 7v16.154H81V7z"/><path fill="url(#a)" d="M66.976 12.832a16.97 16.97 0 0 0-9.147-4.751c-5.163-.867-14.102-.763-14.102-.763 4.539-1.56 9.875-.832 9.875-.832-4.435-1.977-13.27-.59-13.27-.59 4.088-1.11 6.652-1.249 10.463-.798 0 0-4.4-1.977-12.716-.659-.797.104-1.49 1.006-1.94 1.318-1.11.729-1.975 1.04-3.257.555-.624-.243-1.282-.45-2.045-.728.659-.624 1.386-.729 2.183-.624.59.069 1.248 0 1.802-.105.97-.208 1.455-.867 2.703-.936 0 0 2.321 0 4.47-.139 2.147-.104 3.915-1.214 4.642-1.7-3.153-.034-6.029 1.041-9.32 1.007C40.643 2.879 42.514 1.873 44.87 0c-2.321.867-3.707 1.977-6.306 2.012-1.455.034-2.945.381-4.331.659-1.143.208-2.044 1.456-3.118 1.942-1.144.485-2.287.208-3.05-.59-1.004 1.04-1.039 2.254-.207 3.399.311-.416.692-.867 1.178-1.422.311.52.52.763.658.971.97-.52 2.321-.173 2.98.694.45.555 0 .797-.312 1.04-1.282.937-1.94.694-2.53.104l-.45 1.04-1.386-.034 2.53 2.567.103-1.006 1.178-.035c.45-1.04 1.594-1.144 2.391-.798.832.382 1.386 1.353 2.01 2.012.035-.07.07-.277.104-.52.381-1.214 1.282-1.457 2.217-.625l1.42 1.388c.833.797.867 2.15.07 2.982l-9.147 9.156-.07.07-6.86 6.797c-3.811 3.815-10.013 3.815-13.79 0-3.811-3.815-3.811-10.023 0-13.803a9.7 9.7 0 0 1 6.895-2.844c2.495 0 4.99.937 6.895 2.844l5.302 5.306 5.127-5.133-5.3-5.306c-6.653-6.659-17.464-6.659-24.082 0C1.767 16.093 0 20.358 0 24.937c0 4.543 1.767 8.843 4.99 12.069A17 17 0 0 0 17.046 42a17 17 0 0 0 12.058-4.994l12.058-12.07.069-.069 6.826-6.832c3.811-3.815 10.013-3.815 13.79 0 3.811 3.815 3.811 10.023 0 13.803a9.7 9.7 0 0 1-6.895 2.844 9.7 9.7 0 0 1-6.895-2.844l-5.301-5.306-5.128 5.133 5.3 5.306c6.653 6.66 17.464 6.66 24.082 0C70.233 33.746 72 29.48 72 24.901c-.035-4.543-1.802-8.843-5.024-12.069"/><defs><linearGradient id="a" x1="22.759" x2="22.759" y1="41.783" y2="1.205" gradientUnits="userSpaceOnUse"><stop stop-color="#c11111"/><stop offset="1" stop-color="#e63f16"/></linearGradient></defs></svg>
